X: 2
T: Return to the Stewartry
C:Ian Lowthian
S:Thomas Bending <t.bending:mdx.ac.uk> tradtunes 2008-1-29
M:6/8
L:1/8
K:Am
|:\
"Am"e2 e ded-| "F"ded cdB-| "G"BcB AGA-| "Am"A2G (3EGBd |\
"Am"e2 e ded-| "F"ded cdB-| "G"BcB AGA-|[1 "Am"A3-Acd :|[2 "Am"A3-A^GF ||
[|\
"Am"EEE AEc | "Dm"dDE FGA | "G"BG cG dG | "C"eEF GA_B |\
"F"AF _BF cF | "Bb"dFG _Bcd | "E"eE^F "E7"^GAB-| "E7"B^GA BGF |]
[|\
"Am"EEE AEc | "Dm"dDE FGA | "G"BG cG dG| "C"eEF GA_B |\
"F"AF _BF cF | "Bb"dFG _Bcd | "E7"e^GB ^geg | "Am"[A6c6e6a6] |]
